!! 00000] TT[WS
!!!OTL: Da canan
!!!ARE: Asia, China, Shanxi Pingding
!! Ethnic Group: Han
!! WI, 296
!!!SCT: J0357
!!!YEM: Copyright 1995, estate of Helmut Schaffrath.
**kern
*ICvox
*Ivox
*M2/4
*k[]
*C:
{4ee
8ee
8dd
=1
8cc
8ee
8dd
8cc
=2
8a
8b
8a
8e
=3
2g}
=4
{8cc
8b
8a
16a
16g
=5
8e
8cc
8a
8g
=6
8e
8g
8c
8e
=7
2d}
=8
{8g
8e
8g
8a
=9
4cc
8cc
8e
=10
8dd
8cc
8a
8cc
=11
8g
8a
8e
8d}
=12
{8.e
16g
8.e
16g
=13
4cc
4cc
=14
8a
8cc
8a
16g
16a
=15
2cc}
==
!!!AGN: Xiaodiao. Xinminge, Xuanchuan
!! Neue Text. Politische Liede
!!!ONB: ESAC (Essen Associative Code) Database: CHINA
!!!AMT: simple duple
!!!AIN: vox
!!!EED: Helmut Schaffrath
!!!EEV: 1.0
*-
